contributed-vectors/anidroid.svg

<svg width="192" height="192" viewBox="0 0 192 192" fill="none" xmlns="http://www.w3.org/2000/svg">
<path d="M162 20H30C24.4772 20 20 24.4772 20 30V162C20 167.523 24.4772 172 30 172H162C167.523 172 172 167.523 172 162V30C172 24.4772 167.523 20 162 20Z" fill="#96DFD3"/>
<path d="M85.5 140.5H64.5L65 88C65 81 64.8694 77.4297 66.5 70.5C69.0416 67.4717 70.0456 64.1698 67.5 59V54C68.1824 50.3141 68.0641 47.5505 71 47H75L82.5 50.5C86 53 87 52.5 92.5 51H96.5H96.5381C101.512 51 103.775 51 105.5 52.5C108.31 50.7771 111.004 49.788 117 48L119 47.5C121.24 47.2684 122 48.5 122 50V60C122 61 121.912 61.4131 121.5 62L121.522 62.0282C126.157 68.0183 127.187 73.8623 127.5 86.6698V140.5H106.5V103.5C96.8135 105.382 92.1382 108.696 85.5 117V140.5Z" fill="white"/>
<path d="M106.5 82.5L85.5 91.5C84.6229 82.9874 85.9 78.655 96.5 69.5C107 74.5 106.5 76 106.5 82.5Z" fill="#96DFD3"/>
</svg>

<svg xmlns="http://www.w3.org/2000/svg" width="192" height="192" fill="none"><path fill="#96DFD3" d="M162 20H30c-5.523 0-10 4.477-10 10v132c0 5.523 4.477 10 10 10h132c5.523 0 10-4.477 10-10V30c0-5.523-4.477-10-10-10Z"/><path fill="#fff" d="M85.5 140.5h-21L65 88c0-7-.13-10.57 1.5-17.5 2.542-3.028 3.546-6.33 1-11.5v-5c.682-3.686.564-6.45 3.5-7h4l7.5 3.5c3.5 2.5 4.5 2 10 .5h4.038c4.974 0 7.237 0 8.962 1.5 2.81-1.723 5.504-2.712 11.5-4.5l2-.5c2.24-.232 3 1 3 2.5v10c0 1-.088 1.413-.5 2l.022.028c4.635 5.99 5.665 11.834 5.978 24.642v53.83h-21v-37c-9.686 1.882-14.362 5.196-21 13.5v23.5Z"/><path fill="#96DFD3" d="m106.5 82.5-21 9c-.877-8.513.4-12.845 11-22 10.5 5 10 6.5 10 13Z"/></svg>
